X:60
T:Flintstones Theme
C:Johnny Staats (House Concert)
N:TablEdited bySteve Keating
L:1/8
Q:1/4=275
M:4/4
K:G
z2 DF GA Bc |: d4 G4 | z2 g2 (3fgf e2 | d4 G4 | z2 d4 c2 | B2 B2 c2 d2 |1 G2 GG AA Ac | 
BA GB AG FE | DG FE DG AB :|2 GA Bc (3BcB AF | GD EF GA Bd |] g4 z2 A^A | B2 FB ^dB Bf | 
zB Bb z3g | ^ge =gf ed Bd | ef e^c ec A=c | ^cf d=c ^cA GE | AB AG AG D=F | FB G=F ^FD DB, | 
D2 DE DG AB :| GB AB cB AF | G2 DC B,C DE | DG FA GA Bd | g8 | z2 DF GA Bc | 
d4 G4 | z2 g2 (3fgf e2 | [g4d4] [B4G4] | z2 [gd][gd] z2 c2 | B2 B2 c2 d2 | AB cB AG FD | 
G2 G,A, B,D EF | GD EF GA Bc | d2 AB cd ef | g4 ab c'^c' | d'2 zG, G,2 g2 | z2 g2 A2 ag | 
fe df ed Bd | cB AG FD EF | GA Bd ed Bd | g4 z2 A^A | BF FB ^dB Bf | fB Bg BB Bg | 
^ge =g^g ed Bd | e2 ze e4 | eA [e2A2] [fd][eA] [e2A2] | [ge][eA] [e2A2] [af][eA] [eA]c | 
^ce dA dA =cA | cd dd d2 {^c}dd | d2 d2 de de | de fe de de | de de dB (3ABA | 
GG, G,A B^c AB | cd Ac BA GF | ED CB, A,4 | G,B, A,C B,D CE | DE DE FD EF | GA Bd g4 | 


